X: 5582
T: Bushes And Briars
R: waltz
M: 3/4
K: Aminor
E2|AA B3 A|G2 A3 B|cd e2 dc|B4 (cd)|e4 (dB)|c4 B2|
A4 (BG)|E4 DD|E (c c4)|B4 (cB)|(A6|A4) (cd)|e4 (dB)|c4 B2|
A4 (BG)|E4 DD|E (c c4)|B4 {cd}(cB)|A4||

